assets/icons/chat-24.svg

<svg width="24" height="24" viewBox="0 0 24 24" fill="none" xmlns="http://www.w3.org/2000/svg">
<path d="M9 9.76412C9 10.6217 8.32843 11.3169 7.5 11.3169C6.67157 11.3169 6 10.6217 6 9.76412C6 8.90652 6.67157 8.2113 7.5 8.2113C8.32843 8.2113 9 8.90652 9 9.76412Z" fill="#F2F2F2"/>
<path d="M13.5 9.76412C13.5 10.6217 12.8284 11.3169 12 11.3169C11.1716 11.3169 10.5 10.6217 10.5 9.76412C10.5 8.90652 11.1716 8.2113 12 8.2113C12.8284 8.2113 13.5 8.90652 13.5 9.76412Z" fill="#F2F2F2"/>
<path d="M18 9.76412C18 10.6217 17.3284 11.3169 16.5 11.3169C15.6716 11.3169 15 10.6217 15 9.76412C15 8.90652 15.6716 8.2113 16.5 8.2113C17.3284 8.2113 18 8.90652 18 9.76412Z" fill="#F2F2F2"/>
<path fill-rule="evenodd" clip-rule="evenodd" d="M5 2C2.79086 2 1 3.85393 1 6.14086L1 13.7719C1 16.0588 2.79086 17.9128 5 17.9128H5.5V19.9266C5.5 21.4976 7.12375 22.4962 8.45646 21.745L14.8074 18.1649C15.1009 17.9994 15.4297 17.9128 15.7639 17.9128H19C21.2091 17.9128 23 16.0588 23 13.7719V6.14086C23 3.85393 21.2091 2 19 2L5 2ZM3 6.14086C3 4.9974 3.89543 4.07043 5 4.07043L19 4.07043C20.1046 4.07043 21 4.9974 21 6.14086V13.7719C21 14.9154 20.1046 15.8423 19 15.8423H15.7639C15.0955 15.8423 14.4379 16.0157 13.8509 16.3465L7.5 19.9266V17.3951C7.5 16.5375 6.82843 15.8423 6 15.8423H5C3.89543 15.8423 3 14.9154 3 13.7719V6.14086Z" fill="#F2F2F2"/>
</svg>

<svg xmlns="http://www.w3.org/2000/svg" width="24" height="24" viewBox="0 0 24 24"><path d="M9 9.764c0 .858-.672 1.553-1.5 1.553S6 10.622 6 9.764c0-.857.672-1.553 1.5-1.553S9 8.907 9 9.764zm4.5 0c0 .858-.672 1.553-1.5 1.553s-1.5-.695-1.5-1.553c0-.857.672-1.553 1.5-1.553s1.5.696 1.5 1.553zm4.5 0c0 .858-.672 1.553-1.5 1.553S15 10.622 15 9.764c0-.857.672-1.553 1.5-1.553s1.5.696 1.5 1.553z"/><path fill-rule="evenodd" d="M5 2C2.79 2 1 3.854 1 6.14v7.632c0 2.287 1.79 4.14 4 4.14h.5v2.015c0 1.57 1.624 2.57 2.956 1.818l6.351-3.58c.294-.166.623-.252.957-.252H19c2.21 0 4-1.854 4-4.141V6.14C23 3.854 21.21 2 19 2H5zM3 6.14c0-1.143.895-2.07 2-2.07h14c1.105 0 2 .927 2 2.07v7.632c0 1.143-.895 2.07-2 2.07h-3.236c-.668 0-1.326.174-1.913.504L7.5 19.926v-2.53c0-.858-.672-1.554-1.5-1.554H5c-1.105 0-2-.927-2-2.07V6.14z"/></svg>
